X: 31971
T: Peata Geal Mo Mhathair
R: polka
M: 2/4
K: Amajor
|:AB/A/ GE|FD DF|EF GE|Af cB|
AB/A/ GE|FD DF|EF GE|A2 AB:|
c2 AB|cd ~e2|fd ec|df ed|
c2 AB|cd ~e2|fd ec|d2 cB||

